packages/icons/src/assets/layer-up.svg

<svg xmlns="http://www.w3.org/2000/svg" width="24" height="24"><g clip-path="url(#a)"><path d="m18 1.943-4.283 4.275 1.066 1.064 2.467-2.474V12h1.5V4.808l2.468 2.475 1.064-1.065z"/><path d="m20.085 15.683-1.395-.706 1.387-.704-.675-1.335-6.697 3.397c-.45.225-.967.225-1.41 0l-6.697-3.398c-.068-.037-.09-.134-.09-.202 0-.067.022-.172.09-.202l6.502-3.3a1.97 1.97 0 0 1 1.808 0l2.625 1.327.675-1.335-2.625-1.327a3.45 3.45 0 0 0-3.158 0l-6.503 3.3c-.562.284-.915.877-.915 1.544 0 .668.353 1.26.915 1.545l1.388.705-1.395.705c-.562.286-.915.878-.915 1.546 0 .667.353 1.26.908 1.545l6.705 3.397a3 3 0 0 0 2.768 0l6.704-3.397c.563-.285.915-.878.915-1.546 0-.667-.352-1.26-.907-1.545zm-.683 1.747-6.705 3.398c-.442.224-.96.224-1.402 0L4.59 17.43c-.06-.03-.09-.128-.09-.203s.03-.172.09-.202l2.37-1.207 3.653 1.852a3.05 3.05 0 0 0 1.387.337c.473 0 .945-.112 1.387-.337l3.653-1.853 2.37 1.208c.06.03.09.128.09.203 0 .074-.03.172-.09.202z"/></g><defs><clipPath id="a"><path d="M0 0h24v24H0z"/></clipPath></defs></svg>

<svg width="100%" height="100%" viewBox="0 0 24 24" version="1.1" xmlns="http://www.w3.org/2000/svg" xmlns:xlink="http://www.w3.org/1999/xlink" xml:space="preserve" style="fill-rule:evenodd;clip-rule:evenodd;stroke-linejoin:round;stroke-miterlimit:2;"><path d="M18,1.943L13.717,6.218L14.783,7.282L17.25,4.808L17.25,12L18.75,12L18.75,4.808L21.218,7.283L22.282,6.218L18,1.943Z" style="fill-rule:nonzero;"/><path d="M20.085,15.683L18.69,14.977L20.077,14.273L19.402,12.938L12.705,16.335C12.255,16.56 11.738,16.56 11.295,16.335L4.598,12.937C4.53,12.9 4.508,12.803 4.508,12.735C4.508,12.668 4.53,12.563 4.598,12.533L11.1,9.233C11.667,8.94 12.341,8.94 12.908,9.233L15.533,10.56L16.208,9.225L13.583,7.898C12.593,7.388 11.415,7.388 10.425,7.898L3.922,11.198C3.36,11.482 3.007,12.075 3.007,12.742C3.007,13.41 3.36,14.002 3.922,14.287L5.31,14.992L3.915,15.697C3.353,15.983 3,16.575 3,17.243C3,17.91 3.353,18.503 3.908,18.788L10.613,22.185C11.48,22.636 12.514,22.636 13.381,22.185L20.085,18.788C20.648,18.503 21,17.91 21,17.242C21,16.575 20.648,15.982 20.093,15.697L20.085,15.683ZM19.402,17.43L12.697,20.828C12.255,21.052 11.737,21.052 11.295,20.828L4.59,17.43C4.53,17.4 4.5,17.302 4.5,17.227C4.5,17.152 4.53,17.055 4.59,17.025L6.96,15.818L10.613,17.67C11.042,17.89 11.518,18.006 12,18.007C12.473,18.007 12.945,17.895 13.387,17.67L17.04,15.817L19.41,17.025C19.47,17.055 19.5,17.153 19.5,17.228C19.5,17.302 19.47,17.4 19.41,17.43L19.402,17.43Z" style="fill-rule:nonzero;"/></svg>
